icons/glyphs/glyph-go-lang.svg

<?xml version="1.0" encoding="UTF-8" standalone="no"?><svg height="16mm" viewBox="0 0 16 16" width="16mm" xmlns="http://www.w3.org/2000/svg"><sodipodi:namedview/><metadata><rdf:RDF><cc:Work><dc:format>image/svg+xml</dc:format><dc:type/><dc:title/></cc:Work></rdf:RDF></metadata><path d="m3.9997277-.00002845a3.9999994 3.9999994 0 0 0 -3.9997564 3.99975605 3.9999994 3.9999994 0 0 0  .00982.1860351 2.1818179 2.1818179 0 0 0 -.00982.177767 2.1818179 2.1818179 0 0 0  .2485637 1.0087238 3.9999994 3.9999994 0 0 0 3.7511927 2.627747 3.9999994 3.9999994 0 0 0 4.000272-4.0002729 3.9999994 3.9999994 0 0 0 -4.000272-3.99975605zm4.000272 3.99975605a3.9999994 3.9999994 0 0 0  .0098.1865519 2.1818179 2.1818179 0 0 0 -.0098.1772502 2.1818179 2.1818179 0 0 0  .248564 1.0087238 3.9999994 3.9999994 0 0 0 3.7511923 2.627747 3.9999994 3.9999994 0 0 0 4.000273-4.0002729 3.9999994 3.9999994 0 0 0 -4.000273-3.99975605 3.9999994 3.9999994 0 0 0 -3.9997563 3.99975605zm1.949752-1.6014528a1.5 1.5 0 0 1 1.5001673 1.4996501 1.5 1.5 0 0 1 -1.5001673 1.5001666 1.5 1.5 0 0 1 -1.500167-1.5001666 1.5 1.5 0 0 1 1.500167-1.4996501zm-8.2330893.0320394a1.5 1.5 0 0 1 1.5001673 1.5001669 1.5 1.5 0 0 1 -1.5001673 1.4996504 1.5 1.5 0 0 1 -1.49965-1.4996504 1.5 1.5 0 0 1 1.49965-1.5001669zm12.5274016 7.6563798c-1.516363.51853-3.814972.820429-6.2440643.821138-2.007272-.000709-3.946254-.208126-5.421891-.581876l-.487309.536918c.674908.20616 1.452366.36851 2.27273.49506v2.460315a2.1818179 2.1818179 0 0 0 2.181778 2.181779 2.1818179 2.1818179 0 0 0 1.818494-.978752 2.1818179 2.1818179 0 0 0 1.8179773.978752 2.1818179 2.1818179 0 0 0 2.18178-2.181779v-2.577103c.901818-.172341 1.723491-.400379 2.399853-.677479z" fill="#d0d0d0" stroke-width=".727273"/></svg>

<?xml version="1.0" encoding="UTF-8" standalone="no"?>
<!-- Created with Inkscape (http://www.inkscape.org/) -->

<svg
   xmlns:dc="http://purl.org/dc/elements/1.1/"
   xmlns:cc="http://creativecommons.org/ns#"
   xmlns:rdf="http://www.w3.org/1999/02/22-rdf-syntax-ns#"
   xmlns:svg="http://www.w3.org/2000/svg"
   xmlns="http://www.w3.org/2000/svg"
   xmlns:sodipodi="http://sodipodi.sourceforge.net/DTD/sodipodi-0.dtd"
   xmlns:inkscape="http://www.inkscape.org/namespaces/inkscape"
   width="16mm"
   height="16mm"
   viewBox="0 0 16 16"
   version="1.1"
   id="svg8"
   inkscape:version="0.92+devel (bc9c9b4297, 2017-07-16, custom)"
   sodipodi:docname="glyph-go-lang.svg">
  <defs
     id="defs2" />
  <sodipodi:namedview
     id="base"
     pagecolor="#002466"
     bordercolor="#ffffff"
     borderopacity="0.38039216"
     inkscape:pageopacity="1"
     inkscape:pageshadow="2"
     inkscape:zoom="6.8791422"
     inkscape:cx="59.007713"
     inkscape:cy="11.299349"
     inkscape:document-units="mm"
     inkscape:current-layer="svg8"
     inkscape:document-rotation="0"
     showgrid="false"
     inkscape:showpageshadow="false"
     borderlayer="true"
     inkscape:window-width="1920"
     inkscape:window-height="1051"
     inkscape:window-x="0"
     inkscape:window-y="0"
     inkscape:window-maximized="1" />
  <metadata
     id="metadata5">
    <rdf:RDF>
      <cc:Work
         rdf:about="">
        <dc:format>image/svg+xml</dc:format>
        <dc:type
           rdf:resource="http://purl.org/dc/dcmitype/StillImage" />
        <dc:title></dc:title>
      </cc:Work>
    </rdf:RDF>
  </metadata>
  <path
     style="fill:#d0d0d0;stroke-width:0.72727263"
     d="M 3.9997277,-2.8445321e-5 A 3.9999994,3.9999994 0 0 0 -2.8704675e-5,3.9997276 3.9999994,3.9999994 0 0 0 0.0097913,4.1857627 2.1818179,2.1818179 0 0 0 -2.8704675e-5,4.3635297 2.1818179,2.1818179 0 0 0 0.248535,5.3722535 3.9999994,3.9999994 0 0 0 3.9997277,8.0000005 3.9999994,3.9999994 0 0 0 7.9999997,3.9997276 3.9999994,3.9999994 0 0 0 3.9997277,-2.8445321e-5 Z M 7.9999997,3.9997276 a 3.9999994,3.9999994 0 0 0 0.0098,0.1865519 2.1818179,2.1818179 0 0 0 -0.0098,0.1772502 2.1818179,2.1818179 0 0 0 0.248564,1.0087238 3.9999994,3.9999994 0 0 0 3.7511923,2.627747 A 3.9999994,3.9999994 0 0 0 16.000029,3.9997276 3.9999994,3.9999994 0 0 0 11.999756,-2.8445321e-5 3.9999994,3.9999994 0 0 0 7.9999997,3.9997276 Z M 9.9497517,2.3982748 A 1.5,1.5 0 0 1 11.449919,3.8979249 1.5,1.5 0 0 1 9.9497517,5.3980915 1.5,1.5 0 0 1 8.4495847,3.8979249 1.5,1.5 0 0 1 9.9497517,2.3982748 Z M 1.7166624,2.4303142 A 1.5,1.5 0 0 1 3.2168297,3.9304811 1.5,1.5 0 0 1 1.7166624,5.4301315 1.5,1.5 0 0 1 0.2170124,3.9304811 1.5,1.5 0 0 1 1.7166624,2.4303142 Z M 14.244064,10.086694 c -1.516363,0.51853 -3.814972,0.820429 -6.2440643,0.821138 -2.007272,-7.09e-4 -3.946254,-0.208126 -5.421891,-0.581876 l -0.487309,0.536918 c 0.674908,0.20616 1.452366,0.36851 2.27273,0.49506 v 2.460315 a 2.1818179,2.1818179 0 0 0 2.181778,2.181779 2.1818179,2.1818179 0 0 0 1.818494,-0.978752 2.1818179,2.1818179 0 0 0 1.8179773,0.978752 2.1818179,2.1818179 0 0 0 2.18178,-2.181779 v -2.577103 c 0.901818,-0.172341 1.723491,-0.400379 2.399853,-0.677479 z"
     id="path851"
     inkscape:connector-curvature="0"
     inkscape:label="#" />
</svg>
